X: 23963
T: Lochiel's Awa' Tae France
R: reel
M: 4/4
K: Adorian
|:g|eA A/A/A e2 dc|BG G/G/G Bddg|eA A/A/A e2 dc|BGAB gee:|
g|dega bgab|gd d/d/d gddg|dega bgab|ge e/e/e geeg|
dega bgab|gd d/d/d gddg|bgae degB|BA A/A/A gee||
a>f|:e2A2 A2Bd|e2ef gedB|G2GG B2AG|B2d2 d2a>f|
e2A2 A2Bd|e2ef gedB|A2G<A B2AG|g2e2 e2:|
d>B|A2a2 a2gf|e2ef g2fg|a>gf<a d2Bd|g2d2 d4|
e2a2 a2gf|e2ef g2fg|a2e2 e2e2|a2e2 e2|
d>B|A2a2 a2gf|e2ef g2fg|a>gf<a d2Bd|g2d2 d4|
a2gf g2fe|e2ef gedB|A2G<A B2AG|g2e2 e4||

